X:1
T:Lord Rendal
M:4/4
L:1/8
K:G
 B3/2- B/2 B3/2 c/2 B3/2 A/2 G2| d3/2- c/2 d3/2 e/2 d4| B3/2- B/2 B3/2 B/2 B3/2 A/2 G2|\
 B2 AG A4| d3/2 d/2 B A3 z2| f3 df e2 z| g2 fe d2 GA| B2 cA G2 AB|\
 c2 EE E2 AG| F2 EF G4|
